src/epub/images/titlepage.svg

<?xml version="1.0" encoding="utf-8"?>
<svg xmlns="http://www.w3.org/2000/svg" xmlns:svg="http://www.w3.org/2000/svg" version="1.1" viewBox="0 0 1400 340">
	<title>The titlepage for the Standard Ebooks edition of The Secret Adversary, by Agatha Christie</title>
	<g>
		<path d="m 59.224405,68.245613 18.339181,0 0,61.754387 17.590644,0 0,-61.754387 18.33918,0 0,-15.438597 -54.269005,0 0,15.438597 z"/>
		<path d="m 142.41885,99.029239 24.88889,0 0,30.970761 17.59064,0 0,-77.192984 -17.59064,0 0,30.783626 -24.88889,0 0,-30.783626 -17.59064,0 0,77.192984 17.59064,0 0,-30.970761 z"/>
		<path d="m 245.26388,52.807016 -44.16374,0 0,77.192984 44.16374,0 0,-15.4386 -26.5731,0 0,-15.532161 25.4503,0 0,-15.438597 -25.4503,0 0,-15.345029 26.5731,0 0,-15.438597 z"/>
		<path d="m 317.57822,51.403507 c -12.44445,0 -25.1696,9.169591 -25.1696,23.578948 0,8.046784 5.42691,15.251462 14.69006,19.836258 9.16959,4.584795 17.40351,7.111107 17.40351,12.725147 0,7.20468 -7.29824,7.57895 -11.1345,7.57895 -8.60819,0 -18.90059,-8.70176 -18.90059,-8.70176 l -8.79532,14.78363 c 0,0 10.94737,10.19883 29.00585,10.19883 15.06433,0 29.09942,-6.45614 29.09942,-24.88889 0,-10.105264 -9.4503,-17.40351 -18.05848,-21.052632 -8.79532,-3.742691 -16.09357,-6.83041 -16.09357,-11.134504 0,-4.210526 3.18129,-6.923976 9.16959,-6.923976 7.95322,0 15.62573,5.333333 15.62573,5.333333 l 7.11111,-14.035088 c 0,0 -9.91813,-7.298246 -23.95321,-7.298246 z"/>
		<path d="m 401.16301,52.807016 -44.16375,0 0,77.192984 44.16375,0 0,-15.4386 -26.5731,0 0,-15.532161 25.45029,0 0,-15.438597 -25.45029,0 0,-15.345029 26.5731,0 0,-15.438597 z"/>
		<path d="m 457.35159,114.09357 c -17.68421,0 -25.45029,-12.35088 -25.45029,-22.736846 0,-10.292397 7.76608,-22.643275 25.45029,-22.643275 8.98246,0 15.1579,4.77193 15.1579,4.77193 l 7.48538,-14.97076 c 0,0 -8.60819,-7.111112 -25.35673,-7.111112 -21.89473,0 -41.82456,17.964913 -41.82456,40.140352 0,22.081871 20.02339,39.859651 41.82456,39.859651 16.74854,0 25.35673,-7.11111 25.35673,-7.11111 l -7.48538,-14.97076 c 0,0 -6.17544,4.77193 -15.1579,4.77193 z"/>
		<path d="m 491.81653,52.807016 0,77.192984 17.59064,0 0,-30.502925 L 532.98612,130 l 22.36257,0 -26.5731,-31.906433 c 9.45029,-2.994152 15.81287,-10.760234 15.81287,-22.362574 0,-15.157895 -10.85381,-22.923977 -25.16959,-22.923977 l -27.60234,0 z m 17.59064,34.245615 0,-20.210527 2.05848,0 c 6.64327,0 14.59649,0.467836 14.59649,10.105263 0,9.637428 -7.95322,10.105264 -14.59649,10.105264 l -2.05848,0 z"/>
		<path d="m 608.04899,52.807016 -44.16374,0 0,77.192984 44.16374,0 0,-15.4386 -26.5731,0 0,-15.532161 25.4503,0 0,-15.438597 -25.4503,0 0,-15.345029 26.5731,0 0,-15.438597 z"/>
		<path d="m 618.29606,68.245613 18.33918,0 0,61.754387 17.59065,0 0,-61.754387 18.33918,0 0,-15.438597 -54.26901,0 0,15.438597 z"/>
		<path d="m 753.68936,52.807016 -16.28071,0 L 706.25076,130 l 18.90058,0 5.70761,-15.4386 29.38011,0 5.70761,15.4386 18.90058,0 -31.15789,-77.192984 z m 0.5614,46.31579 -17.40351,0 8.60819,-22.45614 0.18713,0 8.60819,22.45614 z"/>
		<path d="m 792.76684,52.807016 0,77.192984 22.36258,0 c 21.23976,0 38.92397,-16.09357 38.92397,-38.643276 0,-22.45614 -17.77777,-38.549708 -38.92397,-38.549708 l -22.36258,0 z m 17.59065,61.473684 0,-45.754385 2.71345,0 c 13.09941,0 21.9883,10.011696 21.9883,22.923977 -0.0936,12.912278 -8.98246,22.830408 -21.9883,22.830408 l -2.71345,0 z"/>
		<path d="m 882.94522,130 13.84795,0 32.37427,-77.192984 -19.83626,0 -19.46198,50.713454 -19.46199,-50.713454 -19.83626,0 L 882.94522,130 Z"/>
		<path d="m 981.25072,52.807016 -44.16375,0 0,77.192984 44.16375,0 0,-15.4386 -26.5731,0 0,-15.532161 25.45029,0 0,-15.438597 -25.45029,0 0,-15.345029 26.5731,0 0,-15.438597 z"/>
		<path d="m 996.36334,52.807016 0,77.192984 17.59066,0 0,-30.502925 23.5789,30.502925 22.3626,0 -26.5731,-31.906433 c 9.4503,-2.994152 15.8129,-10.760234 15.8129,-22.362574 0,-15.157895 -10.8538,-22.923977 -25.1696,-22.923977 l -27.60236,0 z m 17.59066,34.245615 0,-20.210527 2.0585,0 c 6.6432,0 14.5965,0.467836 14.5965,10.105263 0,9.637428 -7.9533,10.105264 -14.5965,10.105264 l -2.0585,0 z"/>
		<path d="m 1096.8765,51.403507 c -12.4444,0 -25.1696,9.169591 -25.1696,23.578948 0,8.046784 5.4269,15.251462 14.6901,19.836258 9.1696,4.584795 17.4035,7.111107 17.4035,12.725147 0,7.20468 -7.2983,7.57895 -11.1345,7.57895 -8.6082,0 -18.9006,-8.70176 -18.9006,-8.70176 l -8.7953,14.78363 c 0,0 10.9473,10.19883 29.0058,10.19883 15.0644,0 29.0994,-6.45614 29.0994,-24.88889 0,-10.105264 -9.4503,-17.40351 -18.0584,-21.052632 -8.7954,-3.742691 -16.0936,-6.83041 -16.0936,-11.134504 0,-4.210526 3.1813,-6.923976 9.1696,-6.923976 7.9532,0 15.6257,5.333333 15.6257,5.333333 l 7.1111,-14.035088 c 0,0 -9.9181,-7.298246 -23.9532,-7.298246 z"/>
		<path d="m 1175.5022,52.807016 -16.2807,0 L 1128.0636,130 l 18.9006,0 5.7076,-15.4386 29.3801,0 5.7076,15.4386 18.9006,0 -31.1579,-77.192984 z m 0.5614,46.31579 -17.4035,0 8.6082,-22.45614 0.1871,0 8.6082,22.45614 z"/>
		<path d="m 1214.5796,52.807016 0,77.192984 17.5907,0 0,-30.502925 23.5789,30.502925 22.3626,0 -26.5731,-31.906433 c 9.4503,-2.994152 15.8129,-10.760234 15.8129,-22.362574 0,-15.157895 -10.8538,-22.923977 -25.1696,-22.923977 l -27.6024,0 z m 17.5907,34.245615 0,-20.210527 2.0585,0 c 6.6432,0 14.5965,0.467836 14.5965,10.105263 0,9.637428 -7.9533,10.105264 -14.5965,10.105264 l -2.0585,0 z"/>
		<path d="m 1269.8209,52.807016 28.4445,42.5731 0,34.619884 17.5906,0 0,-34.619884 28.4445,-42.5731 -21.1462,0 -16.0936,24.701755 -16.0936,-24.701755 -21.1462,0 z"/>
	</g>
	<g>
		<path d="m 370.28345,232.10526 -12.21053,0 L 334.7045,290 l 14.17544,0 4.2807,-11.57895 22.03509,0 4.2807,11.57895 14.17544,0 -23.36842,-57.89474 z m 0.42105,34.73685 -13.05263,0 6.45614,-16.84211 0.14035,0 6.45614,16.84211 z"/>
		<path d="m 453.19244,257.57895 -26.73684,0 0,10.17544 13.33333,0 c 0,7.08772 -6.24561,11.15789 -12.5614,11.15789 -8.14035,0 -14.73685,-8 -14.73685,-17.82456 0,-10.03509 6.5965,-18.10526 14.73685,-18.10526 5.1228,0 9.54386,2.03508 12.91228,7.43859 l 8.63158,-9.47368 c -5.05264,-6.10526 -12.14036,-9.89474 -22.31579,-9.89474 -16.28071,0 -28.21053,13.40351 -28.21053,30.03509 0,16.5614 12.63158,29.96491 28.21053,29.96491 11.36842,0 23.57894,-6.24561 26.73684,-20.91228 l 0,-12.5614 z"/>
		<path d="m 493.3591,232.10526 -12.21053,0 L 457.78015,290 l 14.17544,0 4.2807,-11.57895 22.03509,0 4.2807,11.57895 14.17544,0 -23.36842,-57.89474 z m 0.42105,34.73685 -13.05263,0 6.45614,-16.84211 0.14035,0 6.45614,16.84211 z"/>
		<path d="m 516.84156,243.68421 13.75439,0 0,46.31579 13.19298,0 0,-46.31579 13.75439,0 0,-11.57895 -40.70176,0 0,11.57895 z"/>
		<path d="m 580.48739,266.77193 18.66667,0 0,23.22807 13.19298,0 0,-57.89474 -13.19298,0 0,23.08772 -18.66667,0 0,-23.08772 -13.19298,0 0,57.89474 13.19298,0 0,-23.22807 z"/>
		<path d="m 655.15185,232.10526 -12.21052,0 L 619.57291,290 l 14.17544,0 4.2807,-11.57895 22.03508,0 4.28071,11.57895 14.17543,0 -23.36842,-57.89474 z m 0.42106,34.73685 -13.05263,0 6.45614,-16.84211 0.14035,0 6.45614,16.84211 z"/>
		<path d="m 738.51261,278.07018 c -13.26316,0 -19.08772,-9.26316 -19.08772,-17.05264 0,-7.71929 5.82456,-16.98245 19.08772,-16.98245 6.73684,0 11.36842,3.57895 11.36842,3.57895 l 5.61403,-11.22807 c 0,0 -6.45614,-5.33334 -19.01754,-5.33334 -16.42105,0 -31.36842,13.47369 -31.36842,30.10527 0,16.5614 15.01754,29.89473 31.36842,29.89473 12.5614,0 19.01754,-5.33333 19.01754,-5.33333 l -5.61403,-11.22807 c 0,0 -4.63158,3.57895 -11.36842,3.57895 z"/>
		<path d="m 778.80427,266.77193 18.66667,0 0,23.22807 13.19298,0 0,-57.89474 -13.19298,0 0,23.08772 -18.66667,0 0,-23.08772 -13.19298,0 0,57.89474 13.19298,0 0,-23.22807 z"/>
		<path d="m 824.06524,232.10526 0,57.89474 13.19298,0 0,-22.87719 17.68421,22.87719 16.77193,0 -19.92982,-23.92982 c 7.08772,-2.24562 11.85965,-8.07018 11.85965,-16.77193 0,-11.36842 -8.14035,-17.19299 -18.8772,-17.19299 l -20.70175,0 z m 13.19298,25.68421 0,-15.15789 1.54386,0 c 4.98246,0 10.94737,0.35088 10.94737,7.57895 0,7.22807 -5.96491,7.57894 -10.94737,7.57894 l -1.54386,0 z"/>
		<path d="m 892.55974,232.10526 -13.19299,0 0,57.89474 13.19299,0 0,-57.89474 z"/>
		<path d="m 925.98518,231.05263 c -9.33333,0 -18.87719,6.8772 -18.87719,17.68421 0,6.03509 4.07017,11.4386 11.01754,14.8772 6.8772,3.43859 13.05263,5.33333 13.05263,9.54385 0,5.40351 -5.47368,5.68422 -8.35087,5.68422 -6.45614,0 -14.17544,-6.52632 -14.17544,-6.52632 l -6.59649,11.08772 c 0,0 8.21052,7.64912 21.75438,7.64912 11.29825,0 21.82456,-4.8421 21.82456,-18.66666 0,-7.57895 -7.08771,-13.05264 -13.54385,-15.78948 -6.5965,-2.80702 -12.07018,-5.12281 -12.07018,-8.35088 0,-3.15789 2.38596,-5.19298 6.87719,-5.19298 5.96491,0 11.7193,4 11.7193,4 l 5.33333,-10.52631 c 0,0 -7.43859,-5.47369 -17.96491,-5.47369 z"/>
		<path d="m 949.72532,243.68421 13.75439,0 0,46.31579 13.19298,0 0,-46.31579 13.75439,0 0,-11.57895 -40.70176,0 0,11.57895 z"/>
		<path d="m 1013.3711,232.10526 -13.1929,0 0,57.89474 13.1929,0 0,-57.89474 z"/>
		<path d="m 1059.9567,232.10526 -33.1228,0 0,57.89474 33.1228,0 0,-11.57895 -19.9299,0 0,-11.64912 19.0878,0 0,-11.57895 -19.0878,0 0,-11.50877 19.9299,0 0,-11.57895 z"/>
	</g>
</svg>

<?xml version="1.0" encoding="utf-8"?>
<svg xmlns="http://www.w3.org/2000/svg" xmlns:svg="http://www.w3.org/2000/svg" version="1.1" viewBox="0 0 1400 340">
	<title>The titlepage for the Standard Ebooks edition of The Secret Adversary, by Agatha Christie</title>
	<g aria-label="THE SECRET ADVERSARY">
		<path d="M 59.224405,68.245613 H 77.563586 V 130 H 95.15423 V 68.245613 h 18.33918 V 52.807016 H 59.224405 Z"/>
		<path d="m 142.41885,99.029239 h 24.88889 V 130 h 17.59064 V 52.807016 H 167.30774 V 83.590642 H 142.41885 V 52.807016 H 124.82821 V 130 h 17.59064 z"/>
		<path d="M 245.26388,52.807016 H 201.10014 V 130 h 44.16374 v -15.4386 h -26.5731 V 99.029239 h 25.4503 V 83.590642 h -25.4503 V 68.245613 h 26.5731 z"/>
		<path d="m 317.57822,51.403507 c -12.44445,0 -25.1696,9.169591 -25.1696,23.578948 0,8.046784 5.42691,15.251462 14.69006,19.836258 9.16959,4.584795 17.40351,7.111107 17.40351,12.725147 0,7.20468 -7.29824,7.57895 -11.1345,7.57895 -8.60819,0 -18.90059,-8.70176 -18.90059,-8.70176 l -8.79532,14.78363 c 0,0 10.94737,10.19883 29.00585,10.19883 15.06433,0 29.09942,-6.45614 29.09942,-24.88889 0,-10.105264 -9.4503,-17.40351 -18.05848,-21.052632 -8.79532,-3.742691 -16.09357,-6.83041 -16.09357,-11.134504 0,-4.210526 3.18129,-6.923976 9.16959,-6.923976 7.95322,0 15.62573,5.333333 15.62573,5.333333 l 7.11111,-14.035088 c 0,0 -9.91813,-7.298246 -23.95321,-7.298246 z"/>
		<path d="M 401.16301,52.807016 H 356.99926 V 130 h 44.16375 v -15.4386 h -26.5731 V 99.029239 H 400.0402 V 83.590642 H 374.58991 V 68.245613 h 26.5731 z"/>
		<path d="m 457.35159,114.09357 c -17.68421,0 -25.45029,-12.35088 -25.45029,-22.736846 0,-10.292397 7.76608,-22.643275 25.45029,-22.643275 8.98246,0 15.1579,4.77193 15.1579,4.77193 l 7.48538,-14.97076 c 0,0 -8.60819,-7.111112 -25.35673,-7.111112 -21.89473,0 -41.82456,17.964913 -41.82456,40.140352 0,22.081871 20.02339,39.859651 41.82456,39.859651 16.74854,0 25.35673,-7.11111 25.35673,-7.11111 l -7.48538,-14.97076 c 0,0 -6.17544,4.77193 -15.1579,4.77193 z"/>
		<path d="M 491.81653,52.807016 V 130 h 17.59064 V 99.497075 L 532.98612,130 h 22.36257 l -26.5731,-31.906433 c 9.45029,-2.994152 15.81287,-10.760234 15.81287,-22.362574 0,-15.157895 -10.85381,-22.923977 -25.16959,-22.923977 z m 17.59064,34.245615 V 66.842104 h 2.05848 c 6.64327,0 14.59649,0.467836 14.59649,10.105263 0,9.637428 -7.95322,10.105264 -14.59649,10.105264 z"/>
		<path d="M 608.04899,52.807016 H 563.88525 V 130 h 44.16374 v -15.4386 h -26.5731 V 99.029239 h 25.4503 V 83.590642 h -25.4503 V 68.245613 h 26.5731 z"/>
		<path d="m 618.29606,68.245613 h 18.33918 V 130 h 17.59065 V 68.245613 h 18.33918 V 52.807016 h -54.26901 z"/>
		<path d="M 753.68936,52.807016 H 737.40865 L 706.25076,130 h 18.90058 l 5.70761,-15.4386 h 29.38011 L 765.94667,130 h 18.90058 z m 0.5614,46.31579 h -17.40351 l 8.60819,-22.45614 h 0.18713 z"/>
		<path d="M 792.76684,52.807016 V 130 h 22.36258 c 21.23976,0 38.92397,-16.09357 38.92397,-38.643276 0,-22.45614 -17.77777,-38.549708 -38.92397,-38.549708 z M 810.35749,114.2807 V 68.526315 h 2.71345 c 13.09941,0 21.9883,10.011696 21.9883,22.923977 -0.0936,12.912278 -8.98246,22.830408 -21.9883,22.830408 z"/>
		<path d="m 882.94522,130 h 13.84795 L 929.16744,52.807016 H 909.33118 L 889.8692,103.52047 870.40721,52.807016 h -19.83626 z"/>
		<path d="M 981.25072,52.807016 H 937.08697 V 130 h 44.16375 v -15.4386 h -26.5731 V 99.029239 h 25.45029 V 83.590642 H 954.67762 V 68.245613 h 26.5731 z"/>
		<path d="M 996.36334,52.807016 V 130 H 1013.954 V 99.497075 L 1037.5329,130 h 22.3626 l -26.5731,-31.906433 c 9.4503,-2.994152 15.8129,-10.760234 15.8129,-22.362574 0,-15.157895 -10.8538,-22.923977 -25.1696,-22.923977 z M 1013.954,87.052631 V 66.842104 h 2.0585 c 6.6432,0 14.5965,0.467836 14.5965,10.105263 0,9.637428 -7.9533,10.105264 -14.5965,10.105264 z"/>
		<path d="m 1096.8765,51.403507 c -12.4444,0 -25.1696,9.169591 -25.1696,23.578948 0,8.046784 5.4269,15.251462 14.6901,19.836258 9.1696,4.584795 17.4035,7.111107 17.4035,12.725147 0,7.20468 -7.2983,7.57895 -11.1345,7.57895 -8.6082,0 -18.9006,-8.70176 -18.9006,-8.70176 l -8.7953,14.78363 c 0,0 10.9473,10.19883 29.0058,10.19883 15.0644,0 29.0994,-6.45614 29.0994,-24.88889 0,-10.105264 -9.4503,-17.40351 -18.0584,-21.052632 -8.7954,-3.742691 -16.0936,-6.83041 -16.0936,-11.134504 0,-4.210526 3.1813,-6.923976 9.1696,-6.923976 7.9532,0 15.6257,5.333333 15.6257,5.333333 l 7.1111,-14.035088 c 0,0 -9.9181,-7.298246 -23.9532,-7.298246 z"/>
		<path d="m 1175.5022,52.807016 h -16.2807 L 1128.0636,130 h 18.9006 l 5.7076,-15.4386 h 29.3801 L 1187.7595,130 h 18.9006 z m 0.5614,46.31579 h -17.4035 l 8.6082,-22.45614 h 0.1871 z"/>
		<path d="M 1214.5796,52.807016 V 130 h 17.5907 V 99.497075 L 1255.7492,130 h 22.3626 l -26.5731,-31.906433 c 9.4503,-2.994152 15.8129,-10.760234 15.8129,-22.362574 0,-15.157895 -10.8538,-22.923977 -25.1696,-22.923977 z m 17.5907,34.245615 V 66.842104 h 2.0585 c 6.6432,0 14.5965,0.467836 14.5965,10.105263 0,9.637428 -7.9533,10.105264 -14.5965,10.105264 z"/>
		<path d="m 1269.8209,52.807016 28.4445,42.5731 V 130 h 17.5906 V 95.380116 l 28.4445,-42.5731 h -21.1462 l -16.0936,24.701755 -16.0936,-24.701755 z"/>
	</g>
	<g aria-label="AGATHA CHRISTIE">
		<path d="M 370.28345,232.10526 H 358.07292 L 334.7045,290 h 14.17544 l 4.2807,-11.57895 h 22.03509 L 379.47643,290 h 14.17544 z m 0.42105,34.73685 H 357.65187 L 364.10801,250 h 0.14035 z"/>
		<path d="M 453.19244,257.57895 H 426.4556 v 10.17544 h 13.33333 c 0,7.08772 -6.24561,11.15789 -12.5614,11.15789 -8.14035,0 -14.73685,-8 -14.73685,-17.82456 0,-10.03509 6.5965,-18.10526 14.73685,-18.10526 5.1228,0 9.54386,2.03508 12.91228,7.43859 l 8.63158,-9.47368 c -5.05264,-6.10526 -12.14036,-9.89474 -22.31579,-9.89474 -16.28071,0 -28.21053,13.40351 -28.21053,30.03509 0,16.5614 12.63158,29.96491 28.21053,29.96491 11.36842,0 23.57894,-6.24561 26.73684,-20.91228 z"/>
		<path d="M 493.3591,232.10526 H 481.14857 L 457.78015,290 h 14.17544 l 4.2807,-11.57895 h 22.03509 L 502.55208,290 h 14.17544 z m 0.42105,34.73685 H 480.72752 L 487.18366,250 h 0.14035 z"/>
		<path d="m 516.84156,243.68421 h 13.75439 V 290 h 13.19298 v -46.31579 h 13.75439 v -11.57895 h -40.70176 z"/>
		<path d="m 580.48739,266.77193 h 18.66667 V 290 h 13.19298 v -57.89474 h -13.19298 v 23.08772 H 580.48739 V 232.10526 H 567.29441 V 290 h 13.19298 z"/>
		<path d="M 655.15185,232.10526 H 642.94133 L 619.57291,290 h 14.17544 l 4.2807,-11.57895 h 22.03508 L 664.34484,290 h 14.17543 z m 0.42106,34.73685 H 642.52028 L 648.97642,250 h 0.14035 z"/>
		<path d="m 738.51261,278.07018 c -13.26316,0 -19.08772,-9.26316 -19.08772,-17.05264 0,-7.71929 5.82456,-16.98245 19.08772,-16.98245 6.73684,0 11.36842,3.57895 11.36842,3.57895 l 5.61403,-11.22807 c 0,0 -6.45614,-5.33334 -19.01754,-5.33334 -16.42105,0 -31.36842,13.47369 -31.36842,30.10527 0,16.5614 15.01754,29.89473 31.36842,29.89473 12.5614,0 19.01754,-5.33333 19.01754,-5.33333 l -5.61403,-11.22807 c 0,0 -4.63158,3.57895 -11.36842,3.57895 z"/>
		<path d="m 778.80427,266.77193 h 18.66667 V 290 h 13.19298 v -57.89474 h -13.19298 v 23.08772 H 778.80427 V 232.10526 H 765.61129 V 290 h 13.19298 z"/>
		<path d="M 824.06524,232.10526 V 290 h 13.19298 V 267.12281 L 854.94243,290 h 16.77193 l -19.92982,-23.92982 c 7.08772,-2.24562 11.85965,-8.07018 11.85965,-16.77193 0,-11.36842 -8.14035,-17.19299 -18.8772,-17.19299 z m 13.19298,25.68421 v -15.15789 h 1.54386 c 4.98246,0 10.94737,0.35088 10.94737,7.57895 0,7.22807 -5.96491,7.57894 -10.94737,7.57894 z"/>
		<path d="M 892.55974,232.10526 H 879.36675 V 290 h 13.19299 z"/>
		<path d="m 925.98518,231.05263 c -9.33333,0 -18.87719,6.8772 -18.87719,17.68421 0,6.03509 4.07017,11.4386 11.01754,14.8772 6.8772,3.43859 13.05263,5.33333 13.05263,9.54385 0,5.40351 -5.47368,5.68422 -8.35087,5.68422 -6.45614,0 -14.17544,-6.52632 -14.17544,-6.52632 l -6.59649,11.08772 c 0,0 8.21052,7.64912 21.75438,7.64912 11.29825,0 21.82456,-4.8421 21.82456,-18.66666 0,-7.57895 -7.08771,-13.05264 -13.54385,-15.78948 -6.5965,-2.80702 -12.07018,-5.12281 -12.07018,-8.35088 0,-3.15789 2.38596,-5.19298 6.87719,-5.19298 5.96491,0 11.7193,4 11.7193,4 l 5.33333,-10.52631 c 0,0 -7.43859,-5.47369 -17.96491,-5.47369 z"/>
		<path d="m 949.72532,243.68421 h 13.75439 V 290 h 13.19298 v -46.31579 h 13.75439 v -11.57895 h -40.70176 z"/>
		<path d="m 1013.3711,232.10526 h -13.1929 V 290 h 13.1929 z"/>
		<path d="m 1059.9567,232.10526 h -33.1228 V 290 h 33.1228 v -11.57895 h -19.9299 v -11.64912 h 19.0878 v -11.57895 h -19.0878 v -11.50877 h 19.9299 z"/>
	</g>
</svg>
